z_dist/img/icons/crypto/shiba-inu-SHIB.svg

<svg width="64" height="64" viewBox="0 0 64 64" fill="none" xmlns="http://www.w3.org/2000/svg">
<g clip-path="url(#clip0_238_1000)">
<rect y="0.000244141" width="64" height="64" rx="4" fill="white"/>
<path d="M43.1456 11.9911C41.8964 13.2403 40.7519 14.5942 39.7346 16.0379L39.413 15.9331C37.5579 15.3273 35.6355 14.9532 33.6982 14.8261C33.1147 14.7812 30.938 14.7812 30.2274 14.8261C28.0806 14.9682 26.435 15.2899 24.5649 15.9406C24.4901 15.9705 24.4228 15.993 24.3555 16.0154C23.3008 14.5792 22.1264 13.2328 20.8323 11.9986C27.0408 8.81954 34.3041 8.43806 40.8043 10.9439C41.4999 11.2057 42.1806 11.5124 42.8464 11.8415L43.1456 11.9911Z" fill="#F00500"/>
<path d="M54.7248 40.3634C53.7823 43.0487 52.3686 45.5396 50.536 47.7089C49.5411 48.8758 48.4415 49.9454 47.2597 50.9178C44.492 53.1469 41.2606 54.7402 37.8123 55.578C33.9974 56.498 30.018 56.498 26.2031 55.578C22.7473 54.7402 19.5233 53.1469 16.7557 50.9178C15.5738 49.9454 14.4742 48.8758 13.4794 47.7089C8.2059 41.4779 6.60515 32.9206 9.29052 25.2086C9.79917 23.7799 10.435 22.4036 11.1979 21.0945C11.5495 20.4961 11.9834 19.8229 12.1928 19.5462C12.9109 22.6355 13.7936 25.3507 14.1227 26.3306C14.1002 26.383 14.0703 26.4428 14.0404 26.4952C12.2975 30.0258 11.355 33.4293 11.1306 37.0497C11.1306 37.0946 11.1231 37.1469 11.1231 37.1918C11.0633 38.2764 11.0932 38.7925 11.2728 39.4732C11.8338 41.6051 13.5617 43.9538 16.2695 46.2577C20.7052 50.0277 26.7192 52.7505 31.2746 53.0646C36.0245 53.3863 43.0334 50.6112 47.701 46.5569C48.434 45.9062 49.1222 45.218 49.7655 44.4849C50.2293 43.9464 50.9174 43.0188 50.8651 43.0188C50.8501 43.0188 50.8651 43.0039 50.895 42.9889C50.9174 42.9739 50.9399 42.9515 50.9249 42.9365C50.9174 42.9291 50.9324 42.9066 50.9548 42.8991C50.9773 42.8917 50.9922 42.8767 50.9848 42.8617C50.9773 42.8468 50.9848 42.8318 51.0147 42.8243C51.0371 42.8169 51.0446 42.7944 51.0371 42.7795C51.0296 42.7645 51.0371 42.7495 51.0521 42.7495C51.067 42.7495 51.082 42.7271 51.082 42.7121C51.082 42.6972 51.097 42.6747 51.1119 42.6747C51.1269 42.6747 51.1418 42.6598 51.1418 42.6448C51.1643 42.585 51.2017 42.5251 51.2391 42.4728C51.3513 42.3007 51.8001 41.5004 51.8599 41.3657C52.2863 40.4008 52.5556 39.5406 52.6828 38.6803C52.7426 38.2689 52.78 37.5134 52.7501 37.3339C52.7426 37.304 52.7426 37.2516 52.7351 37.1694C52.7202 37.0198 52.7127 36.7953 52.6977 36.5709C52.6828 36.2343 52.6528 35.7631 52.6304 35.5312C52.3087 32.1352 51.4411 29.3601 49.7954 26.4204C49.7281 26.3082 49.6683 26.196 49.6309 26.1062C49.6159 26.0838 49.6084 26.0614 49.6009 26.0464C49.8328 25.3507 50.7828 22.441 51.5383 19.1123L51.5533 19.1273L51.6655 19.2769C51.8599 19.5387 52.3761 20.3166 52.6079 20.6906C53.6626 22.411 54.4855 24.2586 55.0689 26.1885C56.4228 30.8337 56.3106 35.7855 54.7248 40.3634Z" fill="#F00500"/>
<path d="M45.0156 31.4245C44.9932 31.5442 44.6416 31.9032 44.2901 32.165C43.2578 32.9205 41.4102 33.6236 39.5327 33.9603C38.463 34.1547 37.3933 34.1847 37.0717 34.0276C36.8622 33.9229 36.8323 33.8406 36.9071 33.5713C37.0642 33.0103 37.5729 32.3969 38.3658 31.8209C38.7697 31.5292 40.4079 30.5343 41.1708 30.1155C42.4275 29.4273 43.4448 29.0159 44.133 28.9186C44.3499 28.8887 44.6117 28.8812 44.694 28.9186C44.8287 28.971 44.9783 29.3674 45.0381 29.8462C45.068 30.1005 45.0531 31.2225 45.0156 31.4245Z" fill="black"/>
<path d="M27.3925 33.9004C27.3476 33.9901 27.1232 34.0874 26.8689 34.1248C26.6145 34.1622 25.8366 34.1397 25.3953 34.0874C23.8095 33.8779 22.1264 33.3917 20.8997 32.7933C20.2115 32.4567 19.7178 32.1201 19.3513 31.7536L19.1419 31.5366L19.1194 31.2524C19.082 30.7587 19.0895 29.9808 19.1493 29.704C19.1867 29.4721 19.269 29.2477 19.3812 29.0457C19.4411 28.9709 19.4411 28.9709 19.7104 28.9709C20.0395 28.9709 20.3162 29.0233 20.7651 29.1654C21.6851 29.4497 23.054 30.1378 24.7221 31.1402C26.0984 31.963 26.6145 32.3669 27.011 32.9205C27.2803 33.2645 27.4598 33.7508 27.3925 33.9004Z" fill="black"/>
<path d="M37.9843 44.3127C37.9843 44.3351 37.8946 44.6941 37.7824 45.1205C37.6702 45.5469 37.5804 45.891 37.5804 45.9059C37.4981 45.9134 37.4233 45.9209 37.3411 45.9134H37.1017L36.7726 46.6913C36.593 47.1177 36.4285 47.5142 36.406 47.574L36.3612 47.6787L36.2041 47.4244L36.047 47.1701V45.0981L35.9871 45.113C35.86 45.143 34.9549 45.2626 34.5584 45.3C32.9203 45.4646 31.2746 45.4272 29.644 45.1953C29.3821 45.1579 29.1577 45.128 29.1503 45.1355C29.1428 45.143 29.1503 45.6217 29.1652 46.2126L29.1877 47.2748L29.0605 47.4693C28.9932 47.574 28.9259 47.6638 28.9259 47.6712C28.9034 47.6937 28.8286 47.574 28.6566 47.2299C28.4696 46.8709 28.3349 46.4894 28.2377 46.0929L28.1853 45.876L27.9534 45.891L27.7216 45.9134L27.6617 45.6366C27.6318 45.487 27.5944 45.2552 27.5794 45.128L27.557 44.8886L27.3625 44.7166C27.2503 44.6193 27.1381 44.5221 27.1157 44.5071C27.0783 44.4772 27.0633 44.4249 27.0633 44.38V44.2902L27.9983 44.2977L28.9333 44.3052L28.9633 44.4024L28.9932 44.4997L29.3148 44.5146C29.4944 44.5221 30.0628 44.5371 30.5715 44.552L31.5065 44.5745L31.7459 44.2005L31.9927 43.8265H32.3069L32.2994 43.0485L32.2919 42.2706L31.8805 42.0911C30.5565 41.5076 29.7786 40.8419 29.4869 40.034C29.427 39.8695 29.427 39.8096 29.4121 39.0616C29.4046 38.3211 29.4046 38.2538 29.4569 38.0892C29.5617 37.7152 29.8534 37.4235 30.2274 37.3262C30.3546 37.2888 30.6912 37.2888 32.4565 37.2888L34.536 37.2963L34.7679 37.4085C35.0446 37.5431 35.1718 37.6404 35.3289 37.8498C35.5084 38.0892 35.5608 38.2762 35.5608 38.7325C35.5608 39.3833 35.5159 39.9443 35.4486 40.1687C35.3513 40.4754 35.2017 40.7671 35.0147 41.0289C34.6407 41.5076 33.96 41.9863 33.3392 42.2033L33.1596 42.2706L33.1671 43.056L33.1746 43.8414L33.3392 43.8564L33.5037 43.8713L33.7281 44.2079L33.9451 44.5445H34.9474C35.5009 44.5445 35.9871 44.552 36.032 44.5595C36.1068 44.5745 36.1218 44.567 36.1966 44.4398L36.2864 44.3052H37.1466C37.7899 44.2753 37.9843 44.2902 37.9843 44.3127Z" fill="black"/>
<path d="M34.0348 46.4596C33.8927 46.5419 33.7954 46.5793 33.773 46.5643C33.7506 46.5568 33.6458 46.467 33.5336 46.3848L33.3317 46.2202L33.1222 46.4446C32.6659 46.9383 32.651 46.9608 32.5163 46.9682C32.3069 46.9907 32.262 46.9533 32.0077 46.5718C31.873 46.3773 31.7683 46.2127 31.7683 46.2127C31.7683 46.2127 31.6711 46.1977 31.5589 46.1903L31.3494 46.1678L31.2522 46.3698L31.155 46.5718L30.9829 46.5194C30.8483 46.4745 30.7136 46.4222 30.5865 46.3623L30.3621 46.2501V45.8237L32.3518 45.8312L34.3415 45.8387L34.349 46.0407C34.3564 46.28 34.3639 46.2726 34.0348 46.4596Z" fill="black"/>
<path d="M52.7351 37.334C52.7276 37.304 52.7276 37.2517 52.7201 37.1694C50.9249 36.9749 45.801 36.8552 41.0436 40.7823C41.0436 40.7823 39.5102 33.751 32.3293 33.751C25.1483 33.751 22.4854 40.7823 22.4854 40.7823C18.4611 36.4513 13.0754 36.7655 11.1306 37.0497C11.1306 37.0946 11.1231 37.147 11.1231 37.1918C11.0633 38.2765 11.0932 38.7926 11.2727 39.4733C11.8337 41.6051 13.5616 43.9539 16.2694 46.2578C20.7052 50.0277 26.7192 52.7505 31.2746 53.0647C36.0245 53.3863 43.0333 50.6112 47.7009 46.557C48.434 45.9062 49.1222 45.218 49.7655 44.485C50.2292 43.9464 50.9174 43.0189 50.8651 43.0189C50.8501 43.0189 50.8651 43.0039 50.895 42.9889C50.9174 42.974 50.9398 42.9515 50.9249 42.9366C50.9174 42.9291 50.9324 42.9067 50.9548 42.8992C50.9772 42.8917 50.9922 42.8767 50.9847 42.8618C50.9772 42.8468 50.9847 42.8319 51.0147 42.8244C51.0371 42.8169 51.0446 42.7945 51.0371 42.7795C51.0296 42.7645 51.0371 42.7496 51.0521 42.7496C51.067 42.7496 51.082 42.7271 51.082 42.7122C51.082 42.6972 51.0969 42.6748 51.1119 42.6748C51.1269 42.6748 51.1418 42.6598 51.1418 42.6448C51.1643 42.585 51.2017 42.5252 51.2391 42.4728C51.3513 42.3008 51.8001 41.5004 51.8599 41.3657C52.2863 40.4008 52.5556 39.5406 52.6827 38.6804C52.7276 38.269 52.765 37.5135 52.7351 37.334ZM34.0347 46.4597C33.8926 46.542 33.7954 46.5794 33.7729 46.5644C33.7505 46.557 33.6458 46.4672 33.5336 46.3849L33.3316 46.2204L33.1222 46.4448C32.6659 46.9384 32.6509 46.9609 32.5163 46.9684C32.3068 46.9908 32.262 46.9534 32.0076 46.5719C31.873 46.3774 31.7683 46.2129 31.7683 46.2129C31.7683 46.2129 31.671 46.1979 31.5588 46.1904L31.3494 46.168L31.2521 46.37L31.1549 46.5719L30.9829 46.5196C30.8482 46.4747 30.7136 46.4223 30.5864 46.3625L30.362 46.2503V45.8239L32.3517 45.8314L34.3414 45.8389L34.3489 46.0408C34.3564 46.2802 34.3639 46.2727 34.0347 46.4597ZM37.7748 45.1133C37.6626 45.5397 37.5728 45.8837 37.5728 45.8987C37.4906 45.9062 37.4158 45.9137 37.3335 45.9062H37.0941L36.7725 46.6916C36.593 47.118 36.4284 47.5144 36.4059 47.5743L36.3611 47.679L36.204 47.4246L36.0469 47.1703V45.0983L35.9871 45.1133C35.8599 45.1432 34.9548 45.2629 34.5584 45.3003C32.9202 45.4649 31.2746 45.4275 29.6439 45.1956C29.3821 45.1582 29.1577 45.1283 29.1502 45.1357C29.1427 45.1432 29.1502 45.6219 29.1652 46.2129L29.1876 47.275L29.0605 47.4695C28.9931 47.5743 28.9258 47.664 28.9258 47.6715C28.9034 47.6939 28.8286 47.5743 28.6565 47.2302C28.4695 46.8711 28.3349 46.4896 28.2376 46.0932L28.1853 45.8763L27.9534 45.8912L27.7215 45.9137L27.6617 45.6369C27.6318 45.4873 27.5944 45.2554 27.5794 45.1282L27.557 44.8889L27.3625 44.7168C27.2503 44.6196 27.1381 44.5224 27.1156 44.5074C27.0782 44.4775 27.0633 44.4251 27.0633 44.3802V44.2905L27.9983 44.298L28.9333 44.3054L28.9632 44.4027L28.9931 44.4999L29.3148 44.5149C29.4943 44.5224 30.0628 44.5373 30.5714 44.5523L31.5065 44.5747L31.7458 44.2007L31.9927 43.8267H32.3068L32.2994 43.0488L32.2919 42.2708L31.8805 42.0913C30.5565 41.5079 29.7786 40.8421 29.4868 40.0343C29.427 39.8697 29.427 39.8099 29.412 39.0619C29.4045 38.3213 29.4045 38.254 29.4569 38.0895C29.5616 37.7154 29.8534 37.4237 30.2274 37.3265C30.3545 37.2891 30.6911 37.2891 32.4564 37.2891L34.5359 37.2966L34.7678 37.4088C35.0446 37.5434 35.1717 37.6406 35.3288 37.8501C35.5083 38.0894 35.5607 38.2765 35.5607 38.7327C35.5607 39.3835 35.5158 39.9445 35.4485 40.1689C35.3513 40.4756 35.2016 40.7673 35.0146 41.0291C34.6406 41.5079 33.9599 41.9866 33.3391 42.2035L33.1596 42.2708L33.1671 43.0563L33.1745 43.8417L33.3391 43.8566L33.5037 43.8716L33.7281 44.2082L33.945 44.5448H34.9473C35.5009 44.5448 35.9871 44.5523 36.0319 44.5598C36.1067 44.5747 36.1217 44.5672 36.1965 44.4401L36.2863 44.3054H37.1465C37.8122 44.3054 38.0067 44.3129 38.0067 44.3354C37.9843 44.3279 37.887 44.6944 37.7748 45.1133Z" fill="white"/>
<path d="M52.6753 36.5709C52.6603 36.2343 52.6304 35.7631 52.6079 35.5312C52.2863 32.1352 51.4186 29.3601 49.773 26.4204C49.7057 26.3082 49.6458 26.196 49.6084 26.1062C49.5934 26.0838 49.586 26.0613 49.5785 26.0464C49.8104 25.3507 50.7603 22.441 51.5158 19.1123C52.5406 14.5943 53.1914 9.31335 51.2017 7.72756C51.2017 7.72756 47.7608 7.47324 43.1531 11.9912C41.9039 13.2404 40.7594 14.5943 39.7421 16.038L39.4205 15.9333C37.5654 15.3274 35.643 14.9534 33.7057 14.8262C33.1222 14.7813 30.9455 14.7813 30.2349 14.8262C28.0881 14.9683 26.4425 15.29 24.5724 15.9407C24.4976 15.9707 24.4303 15.9931 24.363 16.0155C23.3083 14.5794 22.1339 13.2329 20.8398 11.9987C16.0451 7.45828 12.477 7.72008 12.477 7.72008C10.3676 9.35823 11.0857 14.8786 12.1778 19.5462C12.8959 22.6355 13.7786 25.3507 14.1077 26.3306C14.0853 26.383 14.0554 26.4428 14.0254 26.4952C12.2826 30.0258 11.3401 33.4293 11.1157 37.0497C13.068 36.7654 18.4462 36.4438 22.478 40.7822C22.478 40.7822 25.1409 33.7509 32.3218 33.7509C39.5028 33.7509 41.0362 40.7822 41.0362 40.7822C45.7935 36.8552 50.9174 36.9823 52.7127 37.1693C52.7052 37.0197 52.6902 36.7953 52.6753 36.5709ZM15.5215 23.5106C15.5215 23.5106 12.7239 16.5167 13.442 12.5223C13.5617 11.8491 13.7861 11.2582 14.1376 10.8094C14.1376 10.8094 17.3092 11.1235 22.4256 16.8084C22.4256 16.8084 21.4532 17.2797 20.1517 18.282C20.1517 18.282 20.1442 18.2895 20.1367 18.2895C18.723 19.3741 16.9128 21.0945 15.5215 23.5106ZM27.3924 33.9005C27.3475 33.9903 27.1231 34.0875 26.8688 34.1249C26.6145 34.1623 25.8366 34.1399 25.3952 34.0875C23.8094 33.8781 22.1264 33.3919 20.8997 32.7935C20.2115 32.4569 19.7178 32.1202 19.3513 31.7537L19.1418 31.5368L19.1194 31.2526C19.082 30.7589 19.0895 29.9809 19.1493 29.7042C19.1867 29.4723 19.269 29.2479 19.3812 29.0459C19.441 28.9711 19.441 28.9711 19.7103 28.9711C20.0395 28.9711 20.3162 29.0235 20.765 29.1656C21.6851 29.4498 23.054 30.138 24.722 31.1404C26.0984 31.9632 26.6145 32.3671 27.0109 32.9206C27.2802 33.2647 27.4597 33.7509 27.3924 33.9005ZM45.0156 31.4246C44.9932 31.5443 44.6416 31.9033 44.29 32.1651C43.2578 32.9206 41.4102 33.6238 39.5327 33.9604C38.463 34.1548 37.3934 34.1848 37.0717 34.0277C36.8623 33.923 36.8324 33.8407 36.9072 33.5714C37.0642 33.0104 37.5729 32.397 38.3658 31.821C38.7697 31.5293 40.4079 30.5345 41.1708 30.1156C42.4275 29.4274 43.4448 29.016 44.133 28.9188C44.3499 28.8888 44.6117 28.8814 44.694 28.9188C44.8286 28.9711 44.9782 29.3676 45.0381 29.8463C45.068 30.1006 45.053 31.2226 45.0156 31.4246ZM43.7739 18.282L43.759 18.2745C42.5023 17.2722 41.5598 16.801 41.5598 16.801C46.5042 11.1161 49.5635 10.8019 49.5635 10.8019C49.9001 11.2582 50.1171 11.8416 50.2367 12.5148C50.9324 16.5092 48.2321 23.5106 48.2321 23.5106C47.1026 21.4985 45.5841 19.7182 43.7739 18.282Z" fill="#FFA409"/>
<path d="M50.2442 12.5147C49.6607 12.4399 46.9006 12.4249 43.7739 18.2819L43.759 18.2744C42.5023 17.2721 41.5598 16.8008 41.5598 16.8008C46.5041 11.1159 49.5635 10.8018 49.5635 10.8018C49.9076 11.258 50.1245 11.8415 50.2442 12.5147Z" fill="#FF9300"/>
<path d="M48.2395 23.5104C47.1025 21.4908 45.5915 19.718 43.7739 18.2818C46.9005 12.4249 49.6532 12.4398 50.2441 12.5146C50.9398 16.5165 48.2395 23.5104 48.2395 23.5104Z" fill="#FF8300"/>
<path d="M50.3551 12.5368C50.3182 12.5294 50.2812 12.522 50.2442 12.5146L50.3551 12.5368Z" fill="#FF8300"/>
<path d="M22.4256 16.8008C22.4256 16.8008 21.4532 17.2721 20.1516 18.2744C20.1516 18.2744 20.1441 18.2819 20.1366 18.2819C16.8977 12.4175 14.0478 12.4399 13.4344 12.5147C13.5541 11.8415 13.7785 11.2506 14.1301 10.8018C14.1376 10.8018 17.3092 11.1159 22.4256 16.8008Z" fill="#FF9300"/>
<path d="M20.1442 18.2818C18.723 19.3739 16.9128 21.0868 15.5215 23.5104C15.5215 23.5104 12.7239 16.5165 13.442 12.5146C14.0479 12.4398 16.9053 12.4249 20.1442 18.2818Z" fill="#FF8300"/>
<path d="M13.4406 12.5146C13.4036 12.522 13.3592 12.5294 13.3223 12.5368L13.4406 12.5146Z" fill="#FF8300"/>
<path d="M40.6696 27.3928C40.6696 27.3928 38.276 27.5424 38.5752 25.6724C38.8744 23.8023 40.7444 23.5779 41.268 23.6527C41.7916 23.7275 43.8861 24.4756 43.5121 26.0464C43.1381 27.6172 42.6145 27.318 42.3153 27.3928C42.0161 27.4676 40.6696 27.3928 40.6696 27.3928Z" fill="white"/>
<path d="M23.0166 27.3928C23.0166 27.3928 20.6229 27.5424 20.9221 25.6724C21.2213 23.8023 23.0914 23.5779 23.615 23.6527C24.1386 23.7275 26.233 24.4756 25.859 26.0464C25.485 27.6172 24.9614 27.318 24.6622 27.3928C24.363 27.4676 23.0166 27.3928 23.0166 27.3928Z" fill="white"/>
</g>
<defs>
<clipPath id="clip0_238_1000">
<rect width="64" height="64" fill="white" transform="translate(0 0.000244141)"/>
</clipPath>
</defs>
</svg>

<svg width="64" height="64" fill="none" xmlns="http://www.w3.org/2000/svg"><g clip-path="url(#clip0_238_1000)"><rect width="64" height="64" rx="4" fill="#fff"/><path d="M43.146 11.991a30.906 30.906 0 00-3.411 4.047l-.322-.105a23.35 23.35 0 00-5.715-1.107c-.583-.045-2.76-.045-3.47 0-2.147.142-3.793.464-5.663 1.115-.075.03-.142.052-.21.074A30.444 30.444 0 0020.832 12a24.49 24.49 0 0122.014-.158l.3.15zm11.579 28.372a23.36 23.36 0 01-4.189 7.346 26.04 26.04 0 01-3.276 3.209 24.183 24.183 0 01-9.448 4.66 24.76 24.76 0 01-11.609 0 24.122 24.122 0 01-9.447-4.66 26.027 26.027 0 01-3.277-3.21 23.086 23.086 0 01-4.188-22.5 24.449 24.449 0 011.907-4.113c.351-.599.785-1.272.995-1.549a77.53 77.53 0 001.93 6.785 1.707 1.707 0 01-.083.164c-1.742 3.53-2.685 6.934-2.91 10.555 0 .045-.007.097-.007.142-.06 1.084-.03 1.6.15 2.281.56 2.132 2.289 4.48 4.997 6.785 4.435 3.77 10.45 6.492 15.005 6.807 4.75.321 11.758-2.454 16.426-6.508a23.455 23.455 0 002.065-2.072c.463-.539 1.151-1.466 1.1-1.466-.016 0 0-.015.029-.03.022-.015.045-.037.03-.052-.008-.008.007-.03.03-.038.022-.007.037-.022.03-.037-.008-.015 0-.03.03-.038.022-.007.03-.03.022-.044-.007-.016 0-.03.015-.03s.03-.023.03-.038.015-.037.03-.037.03-.015.03-.03c.022-.06.06-.12.097-.172.112-.172.561-.973.62-1.107.427-.965.697-1.825.824-2.686.06-.411.097-1.167.067-1.346-.007-.03-.007-.082-.015-.165-.015-.15-.022-.374-.037-.598a25.257 25.257 0 00-.068-1.04c-.321-3.396-1.189-6.17-2.835-9.11a2.594 2.594 0 01-.164-.315c-.015-.022-.023-.045-.03-.06a78.065 78.065 0 001.937-6.934l.015.015.113.15c.194.262.71 1.04.942 1.414a23.546 23.546 0 012.46 5.498 23.342 23.342 0 01-.343 14.174z" fill="#F00500"/><path d="M45.016 31.424c-.023.12-.374.48-.726.741-1.032.755-2.88 1.459-4.757 1.795-1.07.195-2.14.225-2.461.068-.21-.105-.24-.187-.165-.457.157-.56.666-1.174 1.459-1.75.404-.292 2.042-1.287 2.805-1.706 1.257-.688 2.274-1.1 2.962-1.196.217-.03.479-.038.561 0 .135.052.284.448.344.927.03.255.015 1.377-.022 1.578zM27.392 33.9c-.044.09-.269.187-.523.225-.255.037-1.032.015-1.474-.038-1.585-.21-3.269-.695-4.495-1.294-.688-.336-1.182-.673-1.549-1.04l-.21-.216-.022-.285c-.037-.493-.03-1.271.03-1.548a2.05 2.05 0 01.232-.658c.06-.075.06-.075.33-.075.329 0 .605.052 1.054.194.92.285 2.289.973 3.957 1.975 1.376.823 1.892 1.227 2.289 1.78.27.344.449.83.381.98zm10.592 10.413c0 .022-.09.381-.202.807-.112.427-.202.771-.202.786-.082.007-.157.015-.239.007h-.24l-.328.778c-.18.427-.345.823-.367.883l-.045.105-.157-.255-.157-.254v-2.072l-.06.015c-.127.03-1.032.15-1.429.187a20.384 20.384 0 01-4.914-.105 5.01 5.01 0 00-.494-.06c-.007.008 0 .487.015 1.078l.023 1.062-.127.194c-.068.105-.135.195-.135.202-.023.023-.097-.097-.27-.441a5.052 5.052 0 01-.418-1.137l-.053-.217-.232.015-.231.022-.06-.276a7.942 7.942 0 01-.083-.509l-.022-.24-.194-.171a6.948 6.948 0 00-.247-.21c-.038-.03-.053-.082-.053-.127v-.09l.935.008.935.007.03.097.03.098.322.015c.18.007.748.022 1.256.037l.935.023.24-.375.247-.373h.314l-.008-.779-.007-.777-.412-.18c-1.323-.583-2.101-1.25-2.393-2.057-.06-.164-.06-.224-.075-.972-.007-.74-.007-.808.045-.973.105-.374.396-.666.77-.763.128-.037.464-.037 2.23-.037l2.079.007.232.112c.277.135.404.232.56.442.18.24.233.426.233.883 0 .65-.045 1.211-.112 1.436a3.103 3.103 0 01-.434.86c-.374.479-1.055.957-1.676 1.174l-.18.068.008.785.008.785.164.015.165.015.224.337.217.337h1.002c.554 0 1.04.007 1.085.014.075.016.09.008.165-.12l.09-.134h.86c.643-.03.837-.015.837.008z" fill="#000"/><path d="M34.035 46.46c-.142.082-.24.12-.262.104-.022-.007-.127-.097-.24-.18l-.201-.164-.21.225c-.456.493-.471.516-.606.523-.21.023-.254-.015-.508-.396-.135-.195-.24-.36-.24-.36s-.097-.014-.21-.022l-.209-.022-.097.202-.097.202-.172-.053a3.63 3.63 0 01-.396-.157l-.225-.112v-.426l1.99.007 1.99.008.007.202c.007.239.015.232-.314.419z" fill="#000"/><path d="M52.735 37.334c-.007-.03-.007-.082-.015-.165-1.795-.194-6.919-.314-11.676 3.613 0 0-1.534-7.031-8.715-7.031-7.18 0-9.844 7.031-9.844 7.031-4.024-4.33-9.41-4.016-11.354-3.732 0 .045-.008.097-.008.142-.06 1.084-.03 1.6.15 2.281.56 2.132 2.289 4.48 4.996 6.785 4.436 3.77 10.45 6.492 15.006 6.807 4.75.321 11.758-2.454 16.426-6.508a23.47 23.47 0 002.065-2.072c.463-.539 1.151-1.466 1.1-1.466-.016 0 0-.015.029-.03.022-.015.045-.037.03-.052-.008-.008.007-.03.03-.038.022-.007.037-.022.03-.037-.008-.015 0-.03.03-.038.022-.007.03-.03.022-.044-.007-.016 0-.03.015-.03s.03-.023.03-.038.015-.037.03-.037.03-.015.03-.03c.022-.06.06-.12.097-.172.112-.172.561-.973.62-1.107.427-.965.697-1.825.824-2.686.045-.411.082-1.166.052-1.346zm-18.7 9.126c-.142.082-.24.12-.262.104-.023-.007-.127-.097-.24-.18l-.201-.164-.21.225c-.456.493-.471.516-.606.523-.21.023-.254-.015-.508-.396-.135-.195-.24-.36-.24-.36s-.097-.014-.21-.022l-.209-.022-.097.202-.097.202-.172-.052a3.652 3.652 0 01-.397-.158l-.224-.112v-.426l1.99.007 1.99.008.007.202c.007.24.015.232-.314.419zm3.74-1.347c-.112.427-.202.77-.202.786-.082.007-.157.015-.24.007h-.239l-.322.786c-.179.426-.344.822-.366.882l-.045.105-.157-.254-.157-.255v-2.072l-.06.015c-.127.03-1.032.15-1.429.187a20.385 20.385 0 01-4.914-.104 5.058 5.058 0 00-.494-.06c-.007.007 0 .486.015 1.077l.023 1.062-.127.194c-.068.105-.135.195-.135.203-.023.022-.097-.098-.27-.442a5.06 5.06 0 01-.418-1.137l-.053-.217-.232.015-.232.023-.06-.277a7.944 7.944 0 01-.082-.509l-.022-.24-.194-.171c-.113-.097-.225-.195-.247-.21-.038-.03-.053-.082-.053-.127v-.09l.935.008.935.007.03.098.03.097.322.015c.18.007.748.022 1.256.037l.935.023.24-.374.247-.374h.314l-.008-.778-.007-.778-.412-.18c-1.323-.583-2.101-1.249-2.393-2.057-.06-.164-.06-.224-.075-.972-.008-.74-.008-.808.045-.972.105-.375.396-.666.77-.764.128-.037.464-.037 2.23-.037l2.079.008.232.112c.277.134.404.232.56.441.18.24.233.426.233.883 0 .65-.045 1.212-.112 1.436a3.1 3.1 0 01-.434.86c-.374.479-1.055.958-1.676 1.174l-.18.068.008.785.008.786.164.015.165.015.224.336.217.337h1.002c.554 0 1.04.007 1.085.015.075.015.09.007.165-.12l.09-.135h.86c.665 0 .86.008.86.03-.023-.007-.12.36-.232.778z" fill="#fff"/><path d="M52.675 36.57a25.24 25.24 0 00-.067-1.039c-.322-3.396-1.19-6.17-2.835-9.11a2.596 2.596 0 01-.165-.315c-.015-.022-.022-.045-.03-.06a78.078 78.078 0 001.938-6.934c1.025-4.518 1.675-9.799-.314-11.384 0 0-3.441-.255-8.049 4.263a30.906 30.906 0 00-3.41 4.047l-.323-.105a23.35 23.35 0 00-5.714-1.107c-.584-.045-2.76-.045-3.471 0-2.147.142-3.793.464-5.663 1.115-.074.03-.142.052-.209.074A30.45 30.45 0 0020.84 12c-4.795-4.54-8.363-4.279-8.363-4.279-2.11 1.638-1.391 7.159-.3 11.826a77.53 77.53 0 001.93 6.785 1.662 1.662 0 01-.082.164c-1.742 3.53-2.685 6.934-2.91 10.555 1.953-.285 7.331-.606 11.363 3.732 0 0 2.663-7.031 9.844-7.031 7.18 0 8.714 7.031 8.714 7.031 4.758-3.927 9.881-3.8 11.677-3.613-.008-.15-.023-.374-.038-.598zM15.521 23.51s-2.797-6.993-2.079-10.988c.12-.673.344-1.264.696-1.713 0 0 3.171.315 8.288 6 0 0-.973.47-2.274 1.473 0 0-.008.008-.015.008-1.414 1.084-3.224 2.805-4.616 5.22zM27.392 33.9c-.044.09-.269.188-.523.225-.255.037-1.032.015-1.474-.038-1.586-.209-3.269-.695-4.495-1.294-.688-.336-1.182-.673-1.549-1.04l-.21-.216-.022-.284c-.037-.494-.03-1.272.03-1.549a2.05 2.05 0 01.232-.658c.06-.075.06-.075.33-.075.329 0 .605.052 1.054.195.92.284 2.289.972 3.957 1.974 1.376.823 1.892 1.227 2.289 1.78.27.345.449.83.381.98zm17.624-2.475c-.023.12-.374.478-.726.74-1.032.756-2.88 1.459-4.757 1.795-1.07.195-2.14.225-2.461.068-.21-.105-.24-.187-.165-.457.157-.56.666-1.174 1.459-1.75.404-.292 2.042-1.287 2.805-1.705 1.257-.689 2.274-1.1 2.962-1.197.217-.03.479-.038.561 0 .135.052.284.449.344.927.03.255.015 1.377-.022 1.579zm-1.242-13.143l-.015-.008c-1.257-1.002-2.2-1.473-2.2-1.473 4.945-5.685 8.005-6 8.005-6 .336.457.553 1.04.673 1.714.695 3.994-2.005 10.996-2.005 10.996a17.818 17.818 0 00-4.458-5.229z" fill="#FFA409"/><path d="M50.244 12.515c-.583-.075-3.343-.09-6.47 5.767l-.015-.008c-1.257-1.002-2.2-1.473-2.2-1.473 4.945-5.685 8.005-6 8.005-6 .344.457.56 1.04.68 1.714z" fill="#FF9300"/><path d="M48.24 23.51a17.75 17.75 0 00-4.466-5.228c3.127-5.857 5.88-5.842 6.47-5.767.696 4.002-2.005 10.995-2.005 10.995zm2.115-10.973l-.11-.022.11.022z" fill="#FF8300"/><path d="M22.426 16.8s-.973.472-2.274 1.474c0 0-.008.008-.015.008-3.24-5.864-6.09-5.842-6.703-5.767.12-.674.345-1.264.696-1.713.008 0 3.18.314 8.296 5.999z" fill="#FF9300"/><path d="M20.144 18.282c-1.421 1.092-3.231 2.805-4.622 5.228 0 0-2.798-6.994-2.08-10.995.606-.075 3.463-.09 6.702 5.767zm-6.704-5.767l-.118.022.119-.022z" fill="#FF8300"/><path d="M40.67 27.393s-2.394.15-2.095-1.72c.3-1.87 2.17-2.095 2.693-2.02.524.075 2.618.823 2.244 2.393-.374 1.571-.898 1.272-1.197 1.347-.299.075-1.645 0-1.645 0zm-17.653 0s-2.394.15-2.095-1.72c.3-1.87 2.17-2.095 2.693-2.02.524.075 2.618.823 2.244 2.393-.374 1.571-.898 1.272-1.197 1.347-.299.075-1.645 0-1.645 0z" fill="#fff"/></g><defs><clipPath id="clip0_238_1000"><path fill="#fff" d="M0 0h64v64H0z"/></clipPath></defs></svg>
